X: 1
T: Highland Cathedral
M: 4/4
L: 1/8
R: strathspey
K: Gmaj
|:G2 GA/B/ AG DG | A2 AB B2 B2 | B2 Bc/d/ cB AG | A2 AB D4 |
E2 EF/G/ GD FG | d2 dc B4 | A2 AB/c/ BG DG | A2 AG G4 ||
|:F2 FD A2 AF/A/ | B2 BF F2 FE | D2 D/E/F E4| F2 FG/A/ E4 |
F2 FD A2 AF/A/ | B2 BF F2 FE | D2 D/E/F E2>D2| D8 |]
